X:1
T:Title
%%score { ( 1 3 ) | ( 2 4 ) }
L:1/8
M:4/4
K:F
V:1 treble nm="Grand Piano"
V:3 treble 
V:2 bass 
V:4 bass 
V:1
 z4 z2[Q:1/4=110] C2 | [A,C]2 [A,D]2 [A,E]2 [A,F]2 | [CA]6 [B,CE]2 | [A,G]2 [A,F]2 z2 D2 | %4
 [B,CE]6 z2 | [B,C]2 [B,D]2 [B,E]2 [B,G]2 | [EBc]6 [Bd]2 | [EGc]2 [EG]2 [CD^F]2 [EG]2 | [CFA]6 C2 | %9
 [A,C]2 [A,D]2 [A,E]2 [A,F]2 | A2- [A,CFA-]>[CFA] [A,CFA]2 [CFA]2 | [CD^FA]2 [DF]2 [B,G]2 [CDFA]2 | %12
 B2- [B,^CGB-]>[B,CGB] [B,=CGB]2 [B,FB]2 | [=B,F_A=B]2 B2 B2 B2 | [CFc]2 [CEc]2 [CFc]2 [C_EA]2 | %15
 [CEA]2 [CEG]2 [=B,FA]2 [FG=B]2 | [CEGc]6[K:bass] A,,>G,, | C2 F>G A2 [FA]2 | %18
 d4[K:bass][K:treble] z4 | [Fc]2 [FA]>G F2 D2 | E6 z2 | C2 E>F G2 [EG]2 | d4[K:bass][K:treble] z4 | %23
 [Gd]2 [EG]>[FA] [GB]2 [Ec]2 | c6 z2 | C2 F>G A2 [FA]2 | c4[K:bass][K:treble] z4 | %27
 [FB]2 [FB]>[FB] [Fc]2 [Fc]2 | d6 z2 | .[Fc]2 [Fe]>[Fd] .[Fc]2 [Fe]>[Fd] | %30
 [Fc]2 [A,EA]2 [A,F]2 [DFB]2 | [FA]2 [FA]>[GB] [FA]2 G2 |[M:3/4] F6 |] %33
V:2
 z4 z2 C,2 | F,,2 [C,,C,]2 F,,2 [C,,C,]2 | G,,>C,, (3F,,A,,C, F,2 C,2 | F,,2 [C,,C,]2 A,,2 A,,2 | %4
 G,,>C,, E,,>G,, C,2 C2 | E,,2 [C,,C,]2 G,,2 [C,,C,]2 | G,,>C,, E,,>G,, C,2 E2 | z2 C2 z2 C2 | %8
 F,,>F, E,>D, C,>B,, A,,>G,, | F,,2 [C,,C,]2 G,,2 [C,,C,]2 | F,,2 z z/ A,/ F,,2 [_E,,_E,]2 | %11
 [D,,D,]2 [C,C]2 B,,2 A,,2 | [G,,G,]2 [F,,F,]2 [E,,E,]2 [D,,D,]2 | %13
 z2[K:treble] [=B,F_A]2 [B,FA]2 [B,FA]2 | [C,,C,]2 B,,2 G,,2 [^F,,^F,]2 | [G,,G,]4 z2 D2 | %16
 C,2 C,>C, C,>B,, z2 | [F,A,]2 [C,A,C]>[C,B,C] [F,C]2 [C,C]2 | [A,F]4 [F,A,F]2 [C,C]2 | %19
 [F,A,]2 [C,C]>[C,B,C] [F,A,C]2 [_A,C]2 | [G,B,C]2 [C,B,]2 [G,B,]2 [C,B,]2 | %21
 [E,B,]2 [C,B,C]>[C,B,C] [E,B,C]2 [C,B,]2 | [B,E]4 [G,B,E]2 [C,B,]2 | %23
 [E,B,]2 [C,C]>[C,C] [C,C]2 [C,B,]2 | [F,A,F]2 [B,C]2 [A,C]2 [G,B,]2 | %25
 [F,A,]2 [C,A,C]>[C,B,C] [F,C]2 [C,C]2 | [A,F]4 [F,A,F]2 [_E,C]2 | %27
 [D,B,]2 [D,B,]>[D,B,] [C,A,]2 [C,A,]2 | [B,,B,]2 [B,,B,]2 [B,,B,]2 [=B,,_A,]>[B,,A,] | %29
 .[C,A,]2 [=B,,_A,]>[B,,A,] .[C,=A,]2 [B,,_A,]>[B,,A,] | [C,A,]2 ^C,2 D,2 G,,2 | %31
 [C,C]2 [C,C]>[C,C] [C,C]2 [C,B,C]2 |[M:3/4] [F,A,C]6 |] %33
V:3
 x8 | x8 | x8 | z4 C4 | x8 | x8 | x8 | x8 | x8 | x8 | [A,CF]2 z2 z4 | x8 | [B,DG]2 z2 z4 | x8 | %14
 x8 | x8 | x6[K:bass] x2 | x8 | z2[K:bass] C,2[K:treble] d2 [FA]2 | x8 | z2 C2 C2 E2 | x8 | %22
 z2[K:bass] C,2[K:treble] d2 [Ed]2 | x8 | z2 E2 F2 E2 | x8 | z2[K:bass] C,2[K:treble] c2 [FA]2 | %27
 x8 | F2 F2 F2 [Fe]>[Fd] | x8 | x8 | x8 |[M:3/4] x6 |] %33
V:4
 x8 | x8 | x8 | x8 | x8 | x8 | x8 | C,4 C,4 | x8 | x8 | z2 [C,,C,]2 z4 | x8 | x8 | %13
 [^C,,^C,]8[K:treble] | x8 | z4 [G,,G,]4 | x8 | x8 | F,2 z2 z4 | x8 | x8 | x8 | G,2 z2 z4 | x8 | %24
 x8 | x8 | F,2 z2 z4 | x8 | x8 | x8 | x8 | x8 |[M:3/4] x6 |] %33

